flaticon/gastronomy/oat.svg

<svg xmlns="http://www.w3.org/2000/svg" width="32" height="32" viewBox="0 0 24 24">
    <path d="M 15.46875 14.316406 C 15.925781 15.046875 16.652344 15.441406 17.429688 15.441406 C 17.789062 15.441406 18.160156 15.355469 18.519531 15.179688 L 19.917969 14.6875 L 18.988281 13.535156 C 18.597656 12.914062 18.015625 12.542969 17.371094 12.441406 C 17.859375 12.410156 18.339844 12.226562 18.761719 11.875 L 20 11.0625 L 18.820312 10.164062 C 18.550781 9.90625 18.246094 9.726562 17.929688 9.613281 C 18.195312 9.410156 18.425781 9.144531 18.601562 8.820312 L 19.457031 7.613281 L 18.035156 7.207031 C 17.476562 6.976562 16.90625 6.957031 16.398438 7.117188 C 16.757812 6.828125 17.039062 6.425781 17.191406 5.925781 L 17.789062 4.570312 L 16.308594 4.460938 C 15.066406 4.21875 13.957031 4.886719 13.589844 6.097656 L 13.113281 7.179688 C 12.820312 6.839844 12.5 6.527344 12.152344 6.242188 L 13.296875 5.632812 C 14.476562 5.179688 15.0625 4.019531 14.726562 2.800781 L 14.507812 1.335938 L 13.199219 2.03125 C 12.019531 2.484375 11.4375 3.644531 11.769531 4.863281 L 11.949219 6.074219 C 11.558594 5.769531 11.132812 5.503906 10.6875 5.277344 L 11.246094 4.261719 C 11.984375 3.234375 11.839844 1.945312 10.890625 1.109375 L 9.90625 0 L 9.191406 1.296875 C 8.453125 2.324219 8.597656 3.613281 9.546875 4.453125 L 10.011719 4.976562 C 9.910156 4.9375 9.808594 4.890625 9.707031 4.855469 C 9.523438 4.792969 9.335938 4.863281 9.230469 5.015625 L 8.460938 4.132812 C 7.75 3.085938 6.492188 2.777344 5.378906 3.378906 L 4 3.921875 L 4.972656 5.039062 C 5.441406 5.730469 6.144531 6.097656 6.890625 6.097656 C 7.015625 6.097656 7.140625 6.082031 7.269531 6.0625 C 6.671875 6.292969 6.183594 6.769531 5.929688 7.445312 L 5.25 8.761719 L 6.714844 8.964844 C 6.9375 9.023438 7.15625 9.050781 7.371094 9.050781 C 7.75 9.050781 8.113281 8.957031 8.433594 8.789062 C 8.316406 9.136719 8.269531 9.515625 8.328125 9.921875 L 8.367188 11.402344 L 9.75 10.871094 C 9.863281 10.84375 9.96875 10.800781 10.074219 10.761719 C 10.039062 10.875 10.007812 10.988281 9.988281 11.109375 L 9.589844 12.539062 L 11.066406 12.4375 C 11.085938 12.4375 11.101562 12.4375 11.121094 12.4375 C 10.886719 12.644531 10.679688 12.90625 10.53125 13.21875 L 9.734375 14.46875 L 11.179688 14.800781 C 11.347656 14.863281 11.515625 14.898438 11.683594 14.925781 C 11.066406 14.976562 10.476562 15.277344 10.042969 15.824219 L 8.988281 16.867188 L 10.324219 17.511719 C 10.738281 17.777344 11.1875 17.910156 11.628906 17.910156 C 12.3125 17.910156 12.976562 17.59375 13.453125 16.988281 L 13.511719 16.933594 C 12.195312 20.113281 9.359375 22.449219 5.625 23.164062 C 5.394531 23.207031 5.246094 23.429688 5.289062 23.65625 C 5.328125 23.859375 5.503906 24 5.703125 24 C 5.726562 24 5.753906 23.996094 5.78125 23.992188 C 9.582031 23.265625 12.515625 20.984375 14.03125 17.847656 L 13.972656 19.085938 C 13.765625 20.335938 14.460938 21.429688 15.683594 21.761719 L 17.054688 22.320312 L 17.121094 20.839844 C 17.332031 19.59375 16.632812 18.5 15.414062 18.167969 L 14.132812 17.644531 C 14.363281 17.140625 14.550781 16.613281 14.707031 16.066406 L 14.886719 16.699219 C 15.082031 17.945312 16.089844 18.765625 17.355469 18.695312 L 18.832031 18.789062 L 18.429688 17.363281 C 18.234375 16.113281 17.214844 15.296875 15.960938 15.367188 L 14.898438 15.300781 C 14.996094 14.835938 15.070312 14.363281 15.113281 13.878906 Z M 13.523438 2.808594 L 13.847656 2.640625 L 13.894531 2.949219 L 13.90625 3.003906 C 14.136719 3.816406 13.761719 4.558594 12.972656 4.855469 L 12.644531 5.023438 L 12.601562 4.714844 L 12.589844 4.660156 C 12.355469 3.847656 12.734375 3.105469 13.523438 2.808594 Z M 9.886719 1.773438 L 10.070312 1.453125 L 10.277344 1.6875 L 10.316406 1.726562 C 10.953125 2.277344 11.046875 3.105469 10.550781 3.785156 L 10.367188 4.105469 L 10.160156 3.871094 L 10.121094 3.832031 C 9.484375 3.28125 9.390625 2.453125 9.886719 1.773438 Z M 14.808594 19.207031 L 14.828125 18.839844 L 15.121094 18.957031 L 15.171875 18.976562 C 15.988281 19.191406 16.4375 19.890625 16.289062 20.722656 L 16.265625 21.089844 L 15.976562 20.972656 L 15.925781 20.953125 C 15.109375 20.738281 14.660156 20.039062 14.808594 19.207031 Z M 15.960938 16.214844 L 15.988281 16.210938 C 16.824219 16.152344 17.476562 16.679688 17.597656 17.515625 L 17.695312 17.871094 L 17.355469 17.847656 L 17.328125 17.851562 C 16.492188 17.914062 15.839844 17.382812 15.714844 16.546875 L 15.621094 16.191406 Z M 15.160156 12.941406 C 15.160156 12.820312 15.171875 12.703125 15.167969 12.582031 C 15.164062 12.167969 15.125 11.761719 15.058594 11.363281 L 15.589844 11.761719 C 15.960938 12.121094 16.394531 12.339844 16.847656 12.417969 C 16.542969 12.441406 16.234375 12.519531 15.933594 12.667969 Z M 14.570312 9.582031 L 15.609375 9.875 C 15.671875 9.902344 15.738281 9.925781 15.800781 9.945312 C 15.75 9.984375 15.699219 10.011719 15.648438 10.054688 L 14.890625 10.550781 C 14.800781 10.21875 14.695312 9.898438 14.570312 9.582031 Z M 18.28125 14 L 18.511719 14.289062 L 18.214844 14.394531 L 18.164062 14.414062 C 17.414062 14.796875 16.613281 14.570312 16.171875 13.851562 L 15.941406 13.5625 L 16.238281 13.457031 L 16.289062 13.433594 C 17.039062 13.054688 17.84375 13.28125 18.28125 14 Z M 18.539062 11.011719 L 18.277344 11.183594 L 18.234375 11.214844 C 17.59375 11.765625 16.761719 11.738281 16.160156 11.144531 L 15.871094 10.917969 L 16.132812 10.746094 L 16.175781 10.714844 C 16.816406 10.160156 17.648438 10.191406 18.246094 10.785156 Z M 17.726562 7.996094 L 18.078125 8.097656 L 17.898438 8.355469 L 17.871094 8.398438 C 17.476562 9.144531 16.691406 9.421875 15.914062 9.089844 L 15.5625 8.984375 L 15.742188 8.730469 L 15.773438 8.683594 C 16.167969 7.9375 16.953125 7.660156 17.726562 7.996094 Z M 14.371094 6.410156 L 14.390625 6.359375 C 14.628906 5.550781 15.339844 5.121094 16.167969 5.292969 L 16.535156 5.324219 L 16.40625 5.609375 L 16.386719 5.660156 C 16.152344 6.46875 15.4375 6.898438 14.613281 6.730469 L 14.246094 6.699219 Z M 14.472656 7.5625 C 14.640625 7.59375 14.808594 7.609375 14.972656 7.609375 C 15.21875 7.609375 15.457031 7.570312 15.679688 7.5 C 15.429688 7.699219 15.207031 7.953125 15.039062 8.261719 L 14.394531 9.171875 C 14.117188 8.566406 13.769531 7.996094 13.359375 7.480469 Z M 13.390625 9.046875 L 12.453125 9.109375 C 12.089844 9.09375 11.753906 9.152344 11.449219 9.269531 C 11.539062 8.949219 11.570312 8.601562 11.515625 8.238281 L 11.480469 6.78125 C 12.261719 7.394531 12.910156 8.167969 13.390625 9.046875 Z M 5.660156 4.550781 L 5.421875 4.269531 L 5.710938 4.152344 L 5.761719 4.128906 C 6.5 3.722656 7.308594 3.921875 7.773438 4.621094 L 8.011719 4.902344 L 7.722656 5.019531 L 7.671875 5.042969 C 6.933594 5.449219 6.125 5.25 5.660156 4.550781 Z M 8.054688 5.792969 L 9.164062 5.355469 C 9.199219 5.488281 9.289062 5.605469 9.429688 5.652344 C 10.175781 5.910156 10.855469 6.289062 11.460938 6.761719 L 10.097656 7.285156 C 9.894531 7.335938 9.707031 7.414062 9.535156 7.507812 C 9.535156 7.507812 9.535156 7.503906 9.535156 7.503906 L 10.214844 6.191406 L 8.75 5.988281 C 8.402344 5.894531 8.066406 5.886719 7.75 5.933594 C 7.851562 5.894531 7.953125 5.847656 8.054688 5.792969 Z M 6.910156 8.144531 L 6.546875 8.089844 L 6.691406 7.808594 L 6.714844 7.761719 C 7 6.96875 7.742188 6.585938 8.554688 6.808594 L 8.917969 6.863281 L 8.773438 7.140625 L 8.75 7.191406 C 8.464844 7.984375 7.722656 8.367188 6.910156 8.144531 Z M 9.523438 10.058594 L 9.179688 10.1875 L 9.171875 9.875 L 9.167969 9.820312 C 9.035156 8.988281 9.5 8.296875 10.320312 8.097656 L 10.667969 7.96875 L 10.671875 8.285156 L 10.679688 8.339844 C 10.808594 9.171875 10.34375 9.863281 9.523438 10.058594 Z M 11.0625 11.59375 L 10.722656 11.617188 L 10.808594 11.3125 L 10.820312 11.261719 C 10.933594 10.464844 11.527344 9.949219 12.3125 9.949219 C 12.351562 9.949219 12.390625 9.953125 12.429688 9.953125 L 12.457031 9.957031 L 12.796875 9.933594 L 12.710938 10.234375 L 12.699219 10.289062 C 12.578125 11.125 11.941406 11.652344 11.089844 11.59375 Z M 13.53125 10.4375 L 13.726562 9.738281 C 14.050781 10.511719 14.25 11.34375 14.304688 12.210938 L 13.46875 12.019531 C 13.226562 11.933594 12.988281 11.890625 12.753906 11.878906 C 13.15625 11.527344 13.4375 11.035156 13.53125 10.4375 Z M 11.085938 13.914062 L 11.257812 13.652344 L 11.28125 13.601562 C 11.640625 12.839844 12.410156 12.523438 13.199219 12.820312 L 13.558594 12.90625 L 13.390625 13.167969 L 13.363281 13.21875 C 13.007812 13.980469 12.234375 14.296875 11.445312 14 Z M 12.839844 16.410156 L 12.804688 16.449219 C 12.289062 17.117188 11.464844 17.253906 10.761719 16.792969 L 10.429688 16.628906 L 10.691406 16.367188 C 11.207031 15.699219 12.027344 15.5625 12.734375 16.023438 L 13.0625 16.1875 Z M 13.171875 15.304688 C 12.867188 15.109375 12.542969 14.996094 12.21875 14.941406 C 13.019531 14.878906 13.730469 14.402344 14.117188 13.601562 L 14.308594 13.300781 C 14.269531 14.125 14.148438 14.917969 13.941406 15.675781 Z M 13.171875 15.304688"/>
</svg>

<svg xmlns="http://www.w3.org/2000/svg" width="32" height="32" viewBox="0 0 24 24">
    <path d="M15.469 14.316c.457.73 1.183 1.125 1.96 1.125.36 0 .731-.086 1.09-.261l1.399-.492-.93-1.153c-.39-.62-.972-.992-1.617-1.094a2.395 2.395 0 0 0 1.39-.566L20 11.062l-1.18-.898a2.503 2.503 0 0 0-.89-.55c.265-.204.496-.47.672-.794l.855-1.207-1.422-.406a2.383 2.383 0 0 0-1.637-.09c.36-.289.641-.691.793-1.191l.598-1.356-1.48-.11c-1.243-.241-2.352.427-2.72 1.638l-.476 1.082a7.783 7.783 0 0 0-.96-.938l1.144-.61c1.18-.452 1.765-1.612 1.43-2.831l-.22-1.465-1.308.695c-1.18.453-1.761 1.614-1.43 2.832l.18 1.211a7.81 7.81 0 0 0-1.261-.797l.558-1.015c.738-1.028.594-2.317-.355-3.153L9.906 0l-.715 1.297c-.738 1.027-.593 2.316.356 3.156l.465.524c-.102-.04-.203-.086-.305-.122a.411.411 0 0 0-.477.16l-.77-.882c-.71-1.047-1.968-1.356-3.081-.754L4 3.922l.973 1.117c.468.691 1.172 1.059 1.918 1.059.125 0 .25-.016.379-.035-.598.23-1.086.707-1.34 1.382l-.68 1.317 1.465.203c.223.058.441.086.656.086.379 0 .742-.094 1.063-.262a2.423 2.423 0 0 0-.106 1.133l.04 1.48 1.382-.53c.113-.028.219-.071.324-.11a2.511 2.511 0 0 0-.086.347l-.398 1.43 1.476-.101h.055a2.44 2.44 0 0 0-.59.78l-.797 1.25 1.446.333c.168.062.336.097.504.125a2.325 2.325 0 0 0-1.641.898l-1.055 1.043 1.336.645c.414.265.864.398 1.305.398.684 0 1.348-.316 1.824-.922l.059-.054c-1.317 3.18-4.153 5.515-7.887 6.23a.421.421 0 0 0 .078.836c.024 0 .05-.004.078-.008 3.801-.726 6.735-3.008 8.25-6.144l-.058 1.238c-.207 1.25.488 2.344 1.71 2.676l1.372.558.066-1.48c.211-1.246-.488-2.34-1.707-2.672l-1.281-.523c.23-.504.418-1.032.574-1.579l.18.633c.195 1.246 1.203 2.067 2.468 1.996l1.477.094-.402-1.426c-.196-1.25-1.215-2.066-2.47-1.996l-1.062-.066c.098-.465.172-.938.215-1.422zM13.523 2.81l.325-.168.047.308.011.055c.23.812-.144 1.555-.933 1.851l-.328.168-.043-.308-.012-.055c-.235-.812.144-1.555.933-1.851zM9.887 1.773l.183-.32.207.234.04.04c.636.55.73 1.378.234 2.058l-.184.32-.207-.234-.039-.039c-.637-.55-.73-1.379-.234-2.059zm4.922 17.434l.02-.367.292.117.05.02c.817.214 1.267.914 1.118 1.746l-.023.367-.29-.117-.05-.02c-.817-.215-1.266-.914-1.117-1.746zm1.152-2.992l.027-.004c.836-.059 1.489.469 1.61 1.305l.097.355-.34-.023-.027.004c-.836.062-1.488-.47-1.613-1.305l-.094-.356zm-.8-3.274c0-.12.01-.238.007-.359a7.854 7.854 0 0 0-.11-1.219l.532.399c.37.36.805.578 1.258.656a2.483 2.483 0 0 0-.914.25zm-.59-3.359l1.038.293c.063.027.13.05.192.07-.051.04-.102.067-.153.11l-.757.496a9.072 9.072 0 0 0-.32-.969zM18.28 14l.23.29-.296.105-.05.02c-.75.382-1.552.155-1.993-.563l-.23-.29.296-.105.051-.023c.75-.38 1.555-.153 1.992.566zm.258-2.988l-.262.172-.043.03c-.64.552-1.472.524-2.074-.07l-.289-.226.262-.172.043-.031c.64-.555 1.472-.524 2.07.07zm-.812-3.016l.351.102-.18.257-.027.043c-.394.747-1.18 1.024-1.957.692l-.351-.106.18-.254.03-.046c.395-.746 1.18-1.024 1.954-.688zM14.37 6.41l.02-.05c.238-.81.949-1.239 1.777-1.067l.367.031-.129.285-.02.051c-.234.809-.948 1.238-1.773 1.07l-.367-.03zm.102 1.152c.168.032.336.047.5.047.246 0 .484-.039.707-.109-.25.2-.473.453-.64.762l-.645.91a8.213 8.213 0 0 0-1.036-1.692zM13.39 9.047l-.938.062c-.363-.015-.7.043-1.004.16.09-.32.121-.667.067-1.03L11.48 6.78a7.372 7.372 0 0 1 1.91 2.266zM5.66 4.55l-.24-.281.29-.118.05-.023c.739-.406 1.548-.207 2.012.492l.239.281-.29.118-.05.023c-.738.406-1.547.207-2.012-.492zm2.394 1.242l1.11-.438c.034.133.124.25.265.297a7.024 7.024 0 0 1 2.03 1.11l-1.362.523a2.38 2.38 0 0 0-.563.223v-.004l.68-1.313-1.465-.203a2.434 2.434 0 0 0-1-.054c.102-.04.203-.086.305-.141zM6.91 8.145l-.363-.055.144-.281.024-.047c.285-.793 1.027-1.176 1.84-.953l.363.054-.145.278-.023.05c-.285.793-1.027 1.176-1.84.954zm2.613 1.914l-.343.129-.008-.313-.004-.055c-.133-.832.332-1.523 1.152-1.722l.348-.13.004.317.008.055c.129.832-.336 1.523-1.157 1.719zm1.54 1.535l-.34.023.086-.305.011-.05c.114-.797.707-1.313 1.492-1.313.04 0 .079.004.118.004l.027.004.34-.023-.086.3-.012.055c-.12.836-.758 1.363-1.61 1.305zm2.468-1.156l.196-.7c.324.774.523 1.606.578 2.473l-.836-.191a2.493 2.493 0 0 0-.715-.141c.402-.352.684-.844.777-1.441zm-2.445 3.476l.172-.262.023-.05c.36-.762 1.13-1.079 1.918-.782l.36.086-.168.262-.028.05c-.355.762-1.129 1.079-1.918.782zm1.754 2.496l-.035.04c-.516.667-1.34.804-2.043.343l-.332-.164.261-.262c.516-.668 1.336-.805 2.043-.344l.329.165zm.332-1.105a2.531 2.531 0 0 0-.953-.364c.8-.062 1.511-.539 1.898-1.34l.192-.3a10.96 10.96 0 0 1-.368 2.375zm0 0"/>
</svg>
